src/assets/skills/html5.svg

<svg height="100pt" viewBox="0 0 100 100" width="100pt" xmlns="http://www.w3.org/2000/svg"><path d="m0 0h100v100h-100z" fill="#e34f26"/><path d="m36.067 44.445-.931-10.915 40.396.012.925-10.53-52.914-.012 2.805 32.167h36.648l-1.31 13.758-11.686 3.229-11.867-3.253-.756-8.472h-10.478l1.325 16.749 21.773 5.822 21.601-5.795 2.988-32.757z" fill="#fff"/></svg>

<?xml version="1.0" encoding="UTF-8" standalone="no"?><!-- Generator: Gravit.io --><svg xmlns="http://www.w3.org/2000/svg" xmlns:xlink="http://www.w3.org/1999/xlink" style="isolation:isolate" viewBox="0 0 100 100" width="100pt" height="100pt"><path d=" M 0 0 L 100 0 L 100 100 L 0 100 L 0 0 Z " fill="rgb(227,79,38)"/><path d=" M 36.067 44.445 L 35.136 33.53 L 75.532 33.542 L 76.457 23.012 L 23.543 23 L 26.348 55.167 L 62.996 55.167 L 61.686 68.925 L 50 72.154 L 38.133 68.901 L 37.377 60.429 L 26.899 60.429 L 28.224 77.178 L 49.997 83 L 71.598 77.205 L 74.586 44.448 L 36.067 44.445 Z " fill="rgb(255,255,255)"/></svg>
